X: 1181
T:The High Reel (A76)
N: page A76
N: heptatonic
R: reel
M:4/4
L:1/8
K:AMix
|:"A"a2fa eA (3AAA | cAeA cA (3AAA | a2fa eA (3cBA | "G"BGdG BG (3GFG |
| "A"a2fa eA (3AAA | (3Bcd ef "G"g2fg | "A"afge fded | "G"Bcdc BGG2 :|
|:"A"cAeg f2 ed| cAaf eA (3AAA | cAeg f2 ed | "G"Bcdc BG (3GFG |
| "A"cAeg f2 ed| cA(3AAA "G"g2fg |"A"afge fded | "G"Bcdc BGG2 :|
